X:1
T:Title
%%score { ( 1 3 ) | ( 2 4 ) }
L:1/8
Q:1/4=100
M:4/4
K:G
V:1 treble nm="Grand Piano"
V:3 treble 
V:2 treble 
V:4 treble 
V:1
 D>B B>B B2 G2 | z4 [Ec]4 | F2 [Fd]2 [Fd]2 [Fc]2 | c>B B>A B4 | D2 B2 B2 G2 | %5
w: J.~B.~MacKay * * * * *|||||
 E>[EA] [EA]>[EB] [Ec]4 | F>F F>[Fc] [GB]2 [FA]2 | G6 z2 | B4 d4 | G4 B4 | %10
w: |||||
 [FA]>[FA] [FA]>[GB] [Ac]2 [FA]2 | B2 c2 d2 B2 | d4 B4 | e4 c4 | %14
w: ||||
 [Gd]>[Gd] [Gd]>[EGc] [DGB]2 [CFA]2 | G6 z2 |] %16
w: ||
V:2
 [G,B,]>[G,DG] [G,DG]>[G,DG] [G,DG]2[K:bass] [G,B,D]2 | [C,C]2 [C,G,]2 G,2 z2 | %2
 [D,A,D]2 [D,A,]2 [D,A,]2 [D,D]2 | [G,EG]>[G,DG] [G,DG]>[G,CG] [G,DG]4 | %4
 [G,B,]2 [G,DG]2 [G,DG]2[K:bass] [G,B,D]2 | [C,G,C]>[C,C] [C,C]>[C,^G,] [A,,A,]4 | %6
 [D,A,D]>[D,A,D] [D,A,D]>[D,D] [D,D]2 [D,C]2 | [G,B,]6 z2 | [G,DG]2 [G,D]2 [G,B,G]2 [G,B,]2 | %9
 [G,B,D]2 [G,B,]2 [G,DG]2[K:bass] [G,D]2 | [D,D]>[D,D] [D,D]>[D,D] [D,D]2 [D,D]2 | %11
 [G,DG]2 [A,DF]2 [B,DG]2 [G,DG]2 | [G,B,G]2 [G,B,]2 [G,DG]2[K:bass] [G,B,]2 | %13
 [C,C]2 [C,C]2 [C,G,]2 [C,G,]2 | [D,B,]>[D,B,] [D,B,]>D, D,2 D,2 | [G,B,]2 [G,C]2 [G,B,]2 z2 |] %16
V:3
 x8 | E2 [Ec]2 z2 C2 | x8 | x8 | x8 | x8 | x8 | x8 | z2 G2 z2 G2 | z2 D2 z2 G2 | x8 | x8 | %12
 z2 G2 z2 GG | G2 G2 E2 E2 | x8 | z2 E2 D2 z2 |] %16
V:4
 x6[K:bass] x2 | z4 C,4 | x8 | x8 | x6[K:bass] x2 | x8 | x8 | x8 | x8 | x6[K:bass] x2 | x8 | x8 | %12
 x6[K:bass] x2 | x8 | x8 | x8 |] %16

